X: 34
T:Wonderful Chimes(),The,bass part. JNu.20
M:6/8
Q:100
S:James Nuttall MS,c1830,Rossendale,East Lancs.
R:Air
O:England
A:East Lancashire
Z:vmp.Chris Partington
K:Bb
"secundo,read as bass clef"z|GBd GBd|DAcd2z|DAc dac'|gbdg2z|!
B,BB B,BB|Ccc Ccc|Ddd Ddd|GGGG2:|!
|:z|dfa dfa|Aea Aea|Aea Aea|dfad2z|!
D3A3|B3F3|G2EA2A,|DFAD2:|]
